X: 90
T: No_1_Odjib'we's_Dream_Song.krn
%%abc-version 2.0
%%abcx-abcm2ps-target-version 5.9.1 (29 Sep 2008)
%%abc-creator hum2abc beta
%%abcx-conversion-date 2020/08/10 18:54:56
%%humdrum-veritas 1853091108
%%humdrum-veritas-data 3117733100
%%linebreak <none>
%%barnumbers 0
L: 1/8
M: 3/4
K: Bb clef=bass
D3/D/ [I:setbarnb 1]| 
D2B,2CB, | 
B,2!fermata!G,2D3/D/ | 
D2B,2CB, | 
B,2G,>G, G,3/G,/ ||  
[M:2/4]B,G, G,G, | 
F,F, F,F, | 
D,2B,,B,, ||  
[M:3/4]C,2B,,2C,B,, | 
[M:2/4]B,,2G,,2 |]  


